park2-front/src/components/pages/map/component/img/2.svg

<svg width="64" height="76" viewBox="0 0 64 76" fill="none" xmlns="http://www.w3.org/2000/svg">
<g filter="url(#filter0_d_72_214)">
<path d="M58.3637 28.1818C58.3637 48.5455 32.1819 66 32.1819 66C32.1819 66 6.00006 48.5455 6.00006 28.1818C6.00006 21.238 8.75849 14.5785 13.6685 9.66848C18.5786 4.75843 25.238 2 32.1819 2C39.1257 2 45.7852 4.75843 50.6952 9.66848C55.6053 14.5785 58.3637 21.238 58.3637 28.1818Z" fill="#F2F2F3"/>
<path d="M58.3637 28.1818L59.8637 28.1818V28.1818L58.3637 28.1818ZM32.1819 66L31.3498 67.2481C31.8537 67.584 32.5101 67.584 33.0139 67.2481L32.1819 66ZM6.00006 28.1818L4.50006 28.1818V28.1818H6.00006ZM32.1819 2V3.5V2ZM56.8637 28.1818C56.8637 37.7607 50.6696 46.8496 44.1839 53.6957C40.9716 57.0863 37.7543 59.8573 35.3384 61.7811C34.1316 62.7421 33.1278 63.4892 32.4286 63.9942C32.0791 64.2466 31.806 64.4384 31.6219 64.5659C31.5298 64.6296 31.4601 64.6773 31.4142 64.7085C31.3913 64.724 31.3743 64.7355 31.3635 64.7428C31.3581 64.7464 31.3542 64.749 31.352 64.7505C31.3508 64.7513 31.3501 64.7518 31.3497 64.752C31.3495 64.7521 31.3496 64.7521 31.3495 64.7522C31.3496 64.7521 31.3498 64.7519 32.1819 66C33.0139 67.2481 33.0144 67.2478 33.0149 67.2474C33.0152 67.2472 33.0158 67.2468 33.0164 67.2464C33.0177 67.2456 33.0193 67.2445 33.0213 67.2431C33.0254 67.2404 33.031 67.2366 33.0382 67.2318C33.0526 67.2221 33.0732 67.2082 33.0998 67.1902C33.153 67.154 33.2302 67.1012 33.33 67.0321C33.5294 66.894 33.8187 66.6909 34.1851 66.4262C34.9178 65.8971 35.9594 65.1216 37.2072 64.128C39.7003 62.1427 43.0285 59.2773 46.3617 55.7589C52.9669 48.7868 59.8637 38.9665 59.8637 28.1818H56.8637ZM32.1819 66C33.0139 64.7519 33.0142 64.7521 33.0143 64.7522C33.0142 64.7521 33.0142 64.7521 33.0141 64.752C33.0137 64.7518 33.0129 64.7513 33.0118 64.7505C33.0095 64.749 33.0057 64.7464 33.0003 64.7428C32.9895 64.7355 32.9725 64.724 32.9496 64.7085C32.9037 64.6773 32.8339 64.6296 32.7419 64.5659C32.5578 64.4384 32.2846 64.2466 31.9351 63.9942C31.2359 63.4892 30.2321 62.7421 29.0254 61.7811C26.6094 59.8573 23.3921 57.0863 20.1799 53.6957C13.6941 46.8496 7.50006 37.7607 7.50006 28.1818H4.50006C4.50006 38.9665 11.3969 48.7868 18.002 55.7589C21.3353 59.2773 24.6634 62.1427 27.1566 64.128C28.4043 65.1216 29.446 65.8971 30.1786 66.4262C30.545 66.6909 30.8344 66.894 31.0338 67.0321C31.1335 67.1012 31.2108 67.154 31.264 67.1902C31.2906 67.2082 31.3112 67.2221 31.3255 67.2318C31.3327 67.2366 31.3384 67.2404 31.3424 67.2431C31.3444 67.2445 31.3461 67.2456 31.3473 67.2464C31.3479 67.2468 31.3486 67.2472 31.3489 67.2474C31.3494 67.2478 31.3498 67.2481 32.1819 66ZM7.50006 28.1818C7.50006 21.6358 10.1005 15.3579 14.7292 10.7291L12.6079 8.60782C7.41653 13.7992 4.50006 20.8401 4.50006 28.1818L7.50006 28.1818ZM14.7292 10.7291C19.3579 6.1004 25.6359 3.5 32.1819 3.5V0.5C24.8402 0.5 17.7992 3.41647 12.6079 8.60782L14.7292 10.7291ZM32.1819 3.5C38.7279 3.5 45.0058 6.1004 49.6346 10.7291L51.7559 8.60782C46.5645 3.41647 39.5236 0.5 32.1819 0.5V3.5ZM49.6346 10.7291C54.2633 15.3579 56.8637 21.6358 56.8637 28.1818L59.8637 28.1818C59.8637 20.8401 56.9472 13.7992 51.7559 8.60782L49.6346 10.7291Z" fill="black"/>
</g>
<path d="M23.5455 44V39.4545L32.2273 32.2727C32.803 31.7955 33.2955 31.3485 33.7045 30.9318C34.1212 30.5076 34.4394 30.072 34.6591 29.625C34.8864 29.178 35 28.6818 35 28.1364C35 27.5379 34.8712 27.0265 34.6136 26.6023C34.3636 26.178 34.0152 25.8523 33.5682 25.625C33.1212 25.3902 32.6061 25.2727 32.0227 25.2727C31.4394 25.2727 30.9242 25.3902 30.4773 25.625C30.0379 25.8598 29.697 26.2045 29.4545 26.6591C29.2121 27.1136 29.0909 27.6667 29.0909 28.3182H23.0909C23.0909 26.6818 23.4583 25.2727 24.1932 24.0909C24.928 22.9091 25.9659 22 27.3068 21.3636C28.6477 20.7273 30.2197 20.4091 32.0227 20.4091C33.8864 20.4091 35.5 20.7083 36.8636 21.3068C38.2348 21.8977 39.2917 22.7311 40.0341 23.8068C40.7841 24.8826 41.1591 26.1439 41.1591 27.5909C41.1591 28.4848 40.9735 29.375 40.6023 30.2614C40.2311 31.1402 39.5644 32.1136 38.6023 33.1818C37.6402 34.25 36.2727 35.5227 34.5 37L32.3182 38.8182V38.9545H41.4091V44H23.5455Z" fill="black"/>
<defs>
<filter id="filter0_d_72_214" x="0.500061" y="0.5" width="63.3636" height="75" filterUnits="userSpaceOnUse" color-interpolation-filters="sRGB">
<feFlood flood-opacity="0" result="BackgroundImageFix"/>
<feColorMatrix in="SourceAlpha" type="matrix" values="0 0 0 0 0 0 0 0 0 0 0 0 0 0 0 0 0 0 127 0" result="hardAlpha"/>
<feOffset dy="4"/>
<feGaussianBlur stdDeviation="2"/>
<feComposite in2="hardAlpha" operator="out"/>
<feColorMatrix type="matrix" values="0 0 0 0 0 0 0 0 0 0 0 0 0 0 0 0 0 0 0.25 0"/>
<feBlend mode="normal" in2="BackgroundImageFix" result="effect1_dropShadow_72_214"/>
<feBlend mode="normal" in="SourceGraphic" in2="effect1_dropShadow_72_214" result="shape"/>
</filter>
</defs>
</svg>

<?xml version="1.0" encoding="utf-8"?>
<!-- Generator: Adobe Illustrator 26.3.1, SVG Export Plug-In . SVG Version: 6.00 Build 0)  -->
<svg version="1.1" id="圖層_1" xmlns="http://www.w3.org/2000/svg" xmlns:xlink="http://www.w3.org/1999/xlink" x="0px" y="0px"
	 viewBox="0 0 64 76" style="enable-background:new 0 0 64 76;" xml:space="preserve">
<style type="text/css">
	.st0{fill:#F2F2F3;}
</style>
<g>
	<g>
		<path class="st0" d="M58.4,28.2C58.4,48.5,32.2,66,32.2,66S6,48.5,6,28.2c0-6.9,2.8-13.6,7.7-18.5C18.6,4.8,25.2,2,32.2,2
			c6.9,0,13.6,2.8,18.5,7.7C55.6,14.6,58.4,21.2,58.4,28.2z"/>
		<path d="M58.4,28.2h1.5l0,0H58.4z M32.2,66l-0.8,1.2c0.5,0.3,1.2,0.3,1.7,0L32.2,66z M6,28.2H4.5l0,0H6z M32.2,2v1.5V2z
			 M56.9,28.2c0,9.6-6.2,18.7-12.7,25.5c-3.2,3.4-6.4,6.2-8.8,8.1c-1.2,1-2.2,1.7-2.9,2.2c-0.3,0.3-0.6,0.4-0.8,0.6
			c-0.1,0.1-0.2,0.1-0.2,0.1c0,0,0,0-0.1,0c0,0,0,0,0,0c0,0,0,0,0,0c0,0,0,0,0,0c0,0,0,0,0.8,1.2c0.8,1.2,0.8,1.2,0.8,1.2
			c0,0,0,0,0,0c0,0,0,0,0,0c0,0,0,0,0,0c0,0,0,0,0.1,0c0.1,0,0.1-0.1,0.2-0.2c0.2-0.1,0.5-0.3,0.9-0.6c0.7-0.5,1.8-1.3,3-2.3
			c2.5-2,5.8-4.9,9.2-8.4c6.6-7,13.5-16.8,13.5-27.6H56.9z M32.2,66c0.8-1.2,0.8-1.2,0.8-1.2c0,0,0,0,0,0c0,0,0,0,0,0c0,0,0,0,0,0
			c0,0,0,0-0.1,0c0,0-0.1-0.1-0.2-0.1c-0.2-0.1-0.5-0.3-0.8-0.6c-0.7-0.5-1.7-1.3-2.9-2.2c-2.4-1.9-5.6-4.7-8.8-8.1
			C13.7,46.8,7.5,37.8,7.5,28.2h-3C4.5,39,11.4,48.8,18,55.8c3.3,3.5,6.7,6.4,9.2,8.4c1.2,1,2.3,1.8,3,2.3c0.4,0.3,0.7,0.5,0.9,0.6
			c0.1,0.1,0.2,0.1,0.2,0.2c0,0,0,0,0.1,0c0,0,0,0,0,0c0,0,0,0,0,0c0,0,0,0,0,0C31.3,67.2,31.3,67.2,32.2,66z M7.5,28.2
			c0-6.5,2.6-12.8,7.2-17.5l-2.1-2.1c-5.2,5.2-8.1,12.2-8.1,19.6H7.5z M14.7,10.7c4.6-4.6,10.9-7.2,17.5-7.2v-3
			c-7.3,0-14.4,2.9-19.6,8.1L14.7,10.7z M32.2,3.5c6.5,0,12.8,2.6,17.5,7.2l2.1-2.1c-5.2-5.2-12.2-8.1-19.6-8.1V3.5z M49.6,10.7
			c4.6,4.6,7.2,10.9,7.2,17.5h3c0-7.3-2.9-14.4-8.1-19.6L49.6,10.7z"/>
	</g>
	<path d="M23.5,44v-4.5l8.7-7.2c0.6-0.5,1.1-0.9,1.5-1.3c0.4-0.4,0.7-0.9,1-1.3c0.2-0.4,0.3-0.9,0.3-1.5c0-0.6-0.1-1.1-0.4-1.5
		c-0.2-0.4-0.6-0.8-1-1c-0.4-0.2-1-0.4-1.5-0.4c-0.6,0-1.1,0.1-1.5,0.4c-0.4,0.2-0.8,0.6-1,1c-0.2,0.5-0.4,1-0.4,1.7h-6
		c0-1.6,0.4-3,1.1-4.2c0.7-1.2,1.8-2.1,3.1-2.7c1.3-0.6,2.9-1,4.7-1c1.9,0,3.5,0.3,4.8,0.9c1.4,0.6,2.4,1.4,3.2,2.5
		c0.8,1.1,1.1,2.3,1.1,3.8c0,0.9-0.2,1.8-0.6,2.7c-0.4,0.9-1,1.9-2,2.9c-1,1.1-2.3,2.3-4.1,3.8l-2.2,1.8V39h9.1v5H23.5z"/>
</g>
</svg>
